src/icons/svg/attestation.svg

<?xml version="1.0" encoding="UTF-8"?>
<svg width="40px" height="32px" viewBox="0 0 40 32" version="1.1" xmlns="http://www.w3.org/2000/svg"
>
    <path d="M33.3333333,11.556 L24,11.556 C23.2636203,11.556 22.6666667,12.1529537 22.6666667,12.8893333 C22.6666667,13.625713 23.2636203,14.2226667 24,14.2226667 L33.3333333,14.2226667 C34.069713,14.2226667 34.6666667,13.625713 34.6666667,12.8893333 C34.6666667,12.1529537 34.069713,11.556 33.3333333,11.556 Z M33.3333333,18.2226667 L24,18.2226667 C23.2636203,18.2226667 22.6666667,18.8196203 22.6666667,19.556 C22.6666667,20.2923797 23.2636203,20.8893333 24,20.8893333 L33.3333333,20.8893333 C34.069713,20.8893333 34.6666667,20.2923797 34.6666667,19.556 C34.6666667,18.8196203 34.069713,18.2226667 33.3333333,18.2226667 Z M15.5146667,21.14 L15.5146667,20.2706667 C16.7986667,19.4386667 18.0373333,17.9773333 18.7133333,16.1853333 C19.192,15.9773333 19.536,15.3893333 19.8133333,14.3413333 C20.028,13.5293333 19.684,12.9933333 19.2186667,12.696 C18.9893333,8.868 16.756,6.66666667 13.3333333,6.66666667 C9.86266667,6.66666667 7.52266667,8.932 7.34266667,12.8613333 C6.92133333,13.2093333 6.65066667,13.768 6.86133333,14.564 C7.16133333,15.6986667 7.532,16.3506667 8.04266667,16.6 C8.764,18.2106667 9.94533333,19.5173333 11.152,20.2826667 L11.152,21.14 C7.79333333,21.5013333 5.33333333,22.6773333 5.33333333,24.072 C5.33333333,25.7546667 21.3333333,25.7546667 21.3333333,24.072 C21.3333333,22.6773333 18.8733333,21.5013333 15.5146667,21.14 L15.5146667,21.14 Z"
          id="形状"></path>
    <path d="M36,0 L4,0 C1.790861,0 0,1.790861 0,4 L0,28 C0,30.209139 1.790861,32 4,32 L36,32 C38.209139,32 40,30.209139 40,28 L40,4 C40,1.790861 38.209139,0 36,0 L36,0 Z M37.3333333,28 C37.3333333,28.7363797 36.7363797,29.3333333 36,29.3333333 L4,29.3333333 C3.26362033,29.3333333 2.66666667,28.7363797 2.66666667,28 L2.66666667,4 C2.66666667,3.26362033 3.26362033,2.66666667 4,2.66666667 L36,2.66666667 C36.7363797,2.66666667 37.3333333,3.26362033 37.3333333,4 L37.3333333,28 Z"
          id="形状"></path>
</svg>

<svg width="40" height="32" xmlns="http://www.w3.org/2000/svg"><path d="M33.333 11.556H24a1.333 1.333 0 1 0 0 2.667h9.333a1.333 1.333 0 0 0 0-2.667zm0 6.667H24a1.333 1.333 0 1 0 0 2.666h9.333a1.333 1.333 0 1 0 0-2.666zM15.515 21.14v-.87c1.284-.831 2.522-2.293 3.198-4.085.479-.208.823-.796 1.1-1.844.215-.812-.129-1.348-.594-1.645-.23-3.828-2.463-6.03-5.886-6.03-3.47 0-5.81 2.266-5.99 6.195-.422.348-.692.907-.482 1.703.3 1.135.671 1.787 1.182 2.036.721 1.61 1.902 2.917 3.109 3.683v.857c-3.359.361-5.819 1.537-5.819 2.932 0 1.683 16 1.683 16 0 0-1.395-2.46-2.57-5.818-2.932z"/><path d="M36 0H4a4 4 0 0 0-4 4v24a4 4 0 0 0 4 4h32a4 4 0 0 0 4-4V4a4 4 0 0 0-4-4zm1.333 28c0 .736-.597 1.333-1.333 1.333H4A1.333 1.333 0 0 1 2.667 28V4c0-.736.597-1.333 1.333-1.333h32c.736 0 1.333.597 1.333 1.333v24z"/></svg>
